X: 46
T: Cup of Tea [The] 
M: 4/4
L: 1/8
R: Reel
K: Edor
A|BAGF GEEF|GEBE GEEA|BAGF GEEG|FDAG FDDA|
BAGF GEEF|GEBE GEEA|BAGF GABc|dBAG FDD :|
A|d2 e/f/g fdec|d2 eg fBBc|d2 e/f/g fdec|\
dBAG FDDA|
d2 e/f/g fdec|dfaf g2 fg|afge fdec|dBAG FDD :|
A|FAdA FABA|FAdA FEEG|FAdA FABc|dBAG FDDG|
FAdA FABA|FAdA FEEe|f2 ec dBAF|GBAG FDD :|
